Numix-GalliumOS/24/actions/mail-copy.svg

<?xml version="1.0" encoding="UTF-8" standalone="no"?>
<svg
   xmlns:dc="http://purl.org/dc/elements/1.1/"
   xmlns:cc="http://creativecommons.org/ns#"
   xmlns:rdf="http://www.w3.org/1999/02/22-rdf-syntax-ns#"
   xmlns:svg="http://www.w3.org/2000/svg"
   xmlns="http://www.w3.org/2000/svg"
   xmlns:sodipodi="http://sodipodi.sourceforge.net/DTD/sodipodi-0.dtd"
   xmlns:inkscape="http://www.inkscape.org/namespaces/inkscape"
   width="24"
   height="24"
   viewBox="0 0 24 24"
   id="svg2"
   version="1.1"
   inkscape:version="0.91 r"
   sodipodi:docname="mail-copy.svg">
  <metadata
     id="metadata28">
    <rdf:RDF>
      <cc:Work
         rdf:about="">
        <dc:format>image/svg+xml</dc:format>
        <dc:type
           rdf:resource="http://purl.org/dc/dcmitype/StillImage" />
        <dc:title></dc:title>
      </cc:Work>
    </rdf:RDF>
  </metadata>
  <defs
     id="defs26" />
  <sodipodi:namedview
     pagecolor="#ffffff"
     bordercolor="#666666"
     borderopacity="1"
     objecttolerance="10"
     gridtolerance="10"
     guidetolerance="10"
     inkscape:pageopacity="0"
     inkscape:pageshadow="2"
     inkscape:window-width="1920"
     inkscape:window-height="1056"
     id="namedview24"
     showgrid="false"
     inkscape:zoom="15.170655"
     inkscape:cx="12.13139"
     inkscape:cy="6.0165661"
     inkscape:window-x="0"
     inkscape:window-y="24"
     inkscape:window-maximized="1"
     inkscape:current-layer="svg2" />
  <g
     style="fill:#1d699f;fill-opacity:1"
     id="g4-5"
     transform="matrix(0.81818182,0,0,0.81249997,1,-3.8749992)">
    <path
       d="M 2,6 C -7.2055846e-4,6 0,6 0,8 l 0,12 c 0,2 0,2 2,2 l 18,0 c 2,0 2,0 2,-2 0,-4.425781 0,-9.441406 0,-12 0,-2 0,-2 -2,-2 z"
       id="path6-3"
       inkscape:connector-curvature="0"
       style="fill:#1d699f;fill-opacity:1" />
    <path
       d="m 2,22 18,0 c 2,0 2,0 2,-2 L 22,8 0,20 c 0,2 0,2 2,2 z"
       id="path8-6"
       inkscape:connector-curvature="0"
       style="fill:#1d699f;fill-opacity:1" />
  </g>
  <path
     style="fill-opacity:0.1"
     d="m 2.636363,14 14.727274,0 C 19,14 19,14 19,12.375001 L 19,2.6250011 1,12.375001 C 1,14 1,14 2.636363,14 Z"
     id="path10-6"
     inkscape:connector-curvature="0" />
  <path
     style="fill:#1d699f;fill-opacity:1"
     d="M 17.363637,14 2.636363,14 C 1,14 1,14 1,12.375001 L 1,2.6250011 19,12.375001 C 19,14 19,14 17.363637,14 Z"
     id="path12-1"
     inkscape:connector-curvature="0" />
  <path
     style="fill:#ffffff;fill-opacity:0.10199998"
     d="m 1,2.6250011 9,4.874999 9,-4.874999 C 19,0.99999996 19,0.99999996 17.363637,0.99999996 l -14.727274,0 C 1,0.99999996 1,0.99999996 1,2.6250011 Z"
     id="path14-2"
     inkscape:connector-curvature="0" />
  <g
     style="fill:#268bd2"
     id="g4"
     transform="matrix(0.81818182,0,0,0.81249997,5,5.1250007)">
    <path
       d="M 2,6 C -7.2055846e-4,6 0,6 0,8 l 0,12 c 0,2 0,2 2,2 l 18,0 c 2,0 2,0 2,-2 0,-4.425781 0,-9.441406 0,-12 0,-2 0,-2 -2,-2 z"
       id="path6"
       inkscape:connector-curvature="0" />
    <path
       d="m 2,22 18,0 c 2,0 2,0 2,-2 L 22,8 0,20 c 0,2 0,2 2,2 z"
       id="path8"
       inkscape:connector-curvature="0" />
  </g>
  <path
     style="fill-opacity:0.1"
     d="M 6.6363637,23 21.363637,23 C 23,23 23,23 23,21.375001 l 0,-9.75 -18,9.75 C 5,23 5,23 6.6363637,23 Z"
     id="path10"
     inkscape:connector-curvature="0" />
  <path
     style="fill:#268bd2"
     d="M 21.363637,23 6.6363637,23 C 5,23 5,23 5,21.375001 l 0,-9.75 18,9.75 C 23,23 23,23 21.363637,23 Z"
     id="path12"
     inkscape:connector-curvature="0" />
  <path
     style="fill:#ffffff;fill-opacity:0.10199998"
     d="M 5,11.625001 14,16.5 23,11.625001 C 23,10 23,10 21.363637,10 L 6.6363637,10 C 5,10 5,10 5,11.625001 Z"
     id="path14"
     inkscape:connector-curvature="0" />
</svg>

<svg xmlns="http://www.w3.org/2000/svg" viewBox="0 0 24 24">
 <g transform="matrix(0.81818182,0,0,0.81249997,1,-3.8749992)" style="fill:#1d699f;fill-opacity:1">
  <path d="m 2 6 c -2 0 -2 0 -2 2 l 0 12 c 0 2 0 2 2 2 l 18 0 c 2 0 2 0 2 -2 0 -4.426 0 -9.441 0 -12 0 -2 0 -2 -2 -2 z"/>
  <path d="m 2,22 18,0 c 2,0 2,0 2,-2 L 22,8 0,20 c 0,2 0,2 2,2 z"/>
 </g>
 <path d="m 2.636 14 14.727 0 c 1.636 0 1.636 0 1.636 -1.625 l 0 -9.75 -18 9.75 c 0 1.625 0 1.625 1.636 1.625" style="fill-opacity:0.1"/>
 <path d="m 17.364 14 -14.727 0 c -1.636 0 -1.636 0 -1.636 -1.625 l 0 -9.75 18 9.75 c 0 1.625 0 1.625 -1.636 1.625" style="fill:#1d699f;fill-opacity:1"/>
 <path d="m 1 2.625 9 4.875 9 -4.875 c 0 -1.625 0 -1.625 -1.636 -1.625 l -14.727 0 c -1.636 0 -1.636 0 -1.636 1.625" style="fill:#fff;fill-opacity:0.102"/>
 <g transform="matrix(0.81818182,0,0,0.81249997,5,5.1250007)" style="fill:#268bd2">
  <path d="m 2 6 c -2 0 -2 0 -2 2 l 0 12 c 0 2 0 2 2 2 l 18 0 c 2 0 2 0 2 -2 0 -4.426 0 -9.441 0 -12 0 -2 0 -2 -2 -2 z"/>
  <path d="m 2,22 18,0 c 2,0 2,0 2,-2 L 22,8 0,20 c 0,2 0,2 2,2 z"/>
 </g>
 <path d="m 6.636 23 14.727 0 c 1.636 0 1.636 0 1.636 -1.625 l 0 -9.75 -18 9.75 c 0 1.625 0 1.625 1.636 1.625" style="fill-opacity:0.1"/>
 <path d="M 21.363637,23 6.6363637,23 C 5,23 5,23 5,21.375001 l 0,-9.75 18,9.75 C 23,23 23,23 21.363637,23 Z" style="fill:#268bd2"/>
 <path d="M 5,11.625001 14,16.5 23,11.625001 C 23,10 23,10 21.363637,10 L 6.6363637,10 C 5,10 5,10 5,11.625001 Z" style="fill:#fff;fill-opacity:0.102"/>
</svg>
